X: 22729
T: Lamia's
R: jig
M: 6/8
K: Dmixolydian
|:ADD D2E|G2B AGE|ADD D2E|GEC EDC|
ADD D2E|G2B AGE|~d3 AcA|GEC ~D3:|
|:~d3 AFA|~d3 efd|c2 G2 _E2|D_EG F3|
d^cd AFA|d^cd efd|cAG EDC|EDC ~D3:|

